X:3891
L:1/4
M:4/4
K:G
 G G B B | A A G2 | B B d d | c c B2 | A A c c | B/A/B/c/ A2 | c c B A | G F G2 |]

